X: 42782
T: White Water
R: jig
M: 6/8
K: Amajor
cd|e2 a g2 a|fga efg|aec Ace|dcd Bcd|
e2 a g2 a|fga e3|e2 a gab|a3 a:|
[K:D]
|:FE|DFA def|e2 d B2 d|c3 cBc|dcB AFE|
DFA def|e2 d B2 d|cBA =gfe|d3 d:|

